img/icons/instagram.svg

<svg width="16" height="16" viewBox="0 0 16 16" fill="none" xmlns="http://www.w3.org/2000/svg">
<path d="M8 1.44578C10.1205 1.44578 10.4096 1.44578 11.2771 1.44578C12.0482 1.44578 12.4337 1.63855 12.7229 1.73494C13.1084 1.92771 13.3976 2.0241 13.6867 2.31325C13.9759 2.60241 14.1687 2.89157 14.2651 3.27711C14.3614 3.56627 14.4578 3.95181 14.5542 4.72289C14.5542 5.59036 14.5542 5.78313 14.5542 8C14.5542 10.2169 14.5542 10.4096 14.5542 11.2771C14.5542 12.0482 14.3614 12.4337 14.2651 12.7229C14.0723 13.1084 13.9759 13.3976 13.6867 13.6867C13.3976 13.9759 13.1084 14.1687 12.7229 14.2651C12.4337 14.3614 12.0482 14.4578 11.2771 14.5542C10.4096 14.5542 10.2169 14.5542 8 14.5542C5.78313 14.5542 5.59036 14.5542 4.72289 14.5542C3.95181 14.5542 3.56627 14.3614 3.27711 14.2651C2.89157 14.0723 2.60241 13.9759 2.31325 13.6867C2.0241 13.3976 1.83133 13.1084 1.73494 12.7229C1.63855 12.4337 1.54217 12.0482 1.44578 11.2771C1.44578 10.4096 1.44578 10.2169 1.44578 8C1.44578 5.78313 1.44578 5.59036 1.44578 4.72289C1.44578 3.95181 1.63855 3.56627 1.73494 3.27711C1.92771 2.89157 2.0241 2.60241 2.31325 2.31325C2.60241 2.0241 2.89157 1.83133 3.27711 1.73494C3.56627 1.63855 3.95181 1.54217 4.72289 1.44578C5.59036 1.44578 5.87952 1.44578 8 1.44578ZM8 0C5.78313 0 5.59036 0 4.72289 0C3.85542 0 3.27711 0.192772 2.79518 0.385543C2.31325 0.578314 1.83133 0.867471 1.3494 1.3494C0.867471 1.83133 0.674699 2.21687 0.385543 2.79518C0.192772 3.27711 0.0963856 3.85542 0 4.72289C0 5.59036 0 5.87952 0 8C0 10.2169 0 10.4096 0 11.2771C0 12.1446 0.192772 12.7229 0.385543 13.2048C0.578314 13.6867 0.867471 14.1687 1.3494 14.6506C1.83133 15.1325 2.21687 15.3253 2.79518 15.6145C3.27711 15.8072 3.85542 15.9036 4.72289 16C5.59036 16 5.87952 16 8 16C10.1205 16 10.4096 16 11.2771 16C12.1446 16 12.7229 15.8072 13.2048 15.6145C13.6867 15.4217 14.1687 15.1325 14.6506 14.6506C15.1325 14.1687 15.3253 13.7831 15.6145 13.2048C15.8072 12.7229 15.9036 12.1446 16 11.2771C16 10.4096 16 10.1205 16 8C16 5.87952 16 5.59036 16 4.72289C16 3.85542 15.8072 3.27711 15.6145 2.79518C15.4217 2.31325 15.1325 1.83133 14.6506 1.3494C14.1687 0.867471 13.7831 0.674699 13.2048 0.385543C12.7229 0.192772 12.1446 0.0963856 11.2771 0C10.4096 0 10.2169 0 8 0Z" fill="#273C8D"/>
<path d="M8 3.85542C5.68675 3.85542 3.85542 5.68675 3.85542 8C3.85542 10.3133 5.68675 12.1446 8 12.1446C10.3133 12.1446 12.1446 10.3133 12.1446 8C12.1446 5.68675 10.3133 3.85542 8 3.85542ZM8 10.6988C6.55422 10.6988 5.30121 9.54217 5.30121 8C5.30121 6.55422 6.45783 5.30121 8 5.30121C9.44579 5.30121 10.6988 6.45783 10.6988 8C10.6988 9.44579 9.44579 10.6988 8 10.6988Z" fill="#273C8D"/>
<path d="M12.241 4.72289C12.7733 4.72289 13.2048 4.29136 13.2048 3.75904C13.2048 3.22671 12.7733 2.79518 12.241 2.79518C11.7086 2.79518 11.2771 3.22671 11.2771 3.75904C11.2771 4.29136 11.7086 4.72289 12.241 4.72289Z" fill="#273C8D"/>
</svg>

<svg width="16" height="16" fill="none" xmlns="http://www.w3.org/2000/svg"><path d="M8 1.446h3.277c.771 0 1.157.193 1.446.289.385.193.675.29.964.578.289.29.482.579.578.964.096.29.193.675.29 1.446v6.554c0 .771-.194 1.157-.29 1.446-.193.385-.29.675-.578.964-.29.289-.579.482-.964.578-.29.096-.675.193-1.446.29H4.723c-.771 0-1.157-.194-1.446-.29-.385-.193-.675-.29-.964-.578-.289-.29-.482-.579-.578-.964-.096-.29-.193-.675-.29-1.446V4.723c0-.771.194-1.157.29-1.446.193-.385.29-.675.578-.964.29-.289.579-.482.964-.578.29-.096.675-.193 1.446-.29H8zM8 0H4.723c-.868 0-1.446.193-1.928.386a4.209 4.209 0 00-1.446.963c-.482.482-.674.868-.963 1.446-.193.482-.29 1.06-.386 1.928v6.554c0 .868.193 1.446.386 1.928.192.482.481.964.963 1.446s.868.674 1.446.963c.482.193 1.06.29 1.928.386h6.554c.868 0 1.446-.193 1.928-.386a4.21 4.21 0 001.446-.963c.482-.482.674-.868.963-1.446.193-.482.29-1.06.386-1.928V4.723c0-.868-.193-1.446-.386-1.928a4.21 4.21 0 00-.963-1.446c-.482-.482-.868-.674-1.446-.963-.482-.193-1.06-.29-1.928-.386H8z" fill="#273C8D"/><path d="M8 3.855A4.114 4.114 0 003.855 8 4.114 4.114 0 008 12.145 4.114 4.114 0 0012.145 8 4.114 4.114 0 008 3.855zM8 10.7A2.694 2.694 0 015.301 8 2.694 2.694 0 018 5.301 2.694 2.694 0 0110.699 8c0 1.446-1.253 2.699-2.699 2.699zm4.241-5.977a.964.964 0 100-1.928.964.964 0 000 1.928z" fill="#273C8D"/></svg>
